X: 145
T: I'm Off With the Good St. Nicholas Boat
T: Jig, A
C: J. Scott Skinner
L: 1/16
M: 6/8
K: A
|: E2| A2c2e2 e2^d2e2| f2e2d2 c6| d2c2d2 B2e2d2| c6 c6| A2c2e2 e2^d2e2| f2e2d2 c6| d2c2d2 B2e2c2| A6 A4:| 
B2| c2f2g2 a2g2f2| d2e2d2 c6| c2f2g2 a2g2f2| g6 g2a2b2| a2g2f2 e2^d2e2| f2e2d2 c6| B2e2f2 g2a2f2| e6 e2^d2e2| 
f6 f2d2B2| g6 g2e2c2| d6 d2c2B2| e6 e6| A2c2e2 e2^d2e2| f2e2d2 c6| d2c2d2 E2F2G2| A6 A4|| 
D: Winston "Scotty" Fitzgerald, Classic Cuts, BBMC 001
